X: 11493
T: Eddie Curran's
R: jig
M: 6/8
K: Dmajor
B|:AFD ADF|AFD ECA,|DFA dfa|~g3 efg|
fed ecA|~d3 AFA|DFA dfa|1 gec d2A:|2 gec dfg||
afa geg|fdf ecA|ABc def|~g3 efg|
afa geg|fdf ecA|~d3 AFD|1 EDC Dfg:|2 EDC D3||

